X:1
T:She Was a Rum One
M:4/4
L:1/4
K:F
 A/2| c A c d| A G G3/2 A/2| c A c d|
M:6/4
 A2 G3| A/2A/2|
M:4/4
 c A c d| A/2A/2 G FF/2-G/2| A G F D| F2 F3/2 z/2| F F/2F/2 F A| G/2F/2 G/2A/2 G F|\
 F3 C/2C/2| F/2F/2 F F/2G/2 A/2F/2| G2 F3/2||
